;FLAVOR:Marlin
;TIME:11422
;Filament used: 21.8419m
;Layer height: 0.3
;Generated with Cura_SteamEngine 3.1.0
M190 S80
M104 S200
M109 S200
M82 ; absolute extrusion mode
G21 ;metric values
G90 ;absolute positioning
M82 ;set extruder to absolute mode
M107 ;start with the fan off
G28 X0 Y0 ;move X/Y to min endstops
G28 Z0 ;move Z to min endstops
G1 Z15.0 F9000 ;move the platform down 15mm
G92 E0 ;zero the extruded length
G1 F200 E5 ;extrude 5mm of feed stock
G92 E0 ;zero the extruded length again
G1 F9000
M117 Printing...
;LAYER_COUNT:61
;LAYER:0
M107
G0 F3600 X161.897 Y31.789 Z0.3
;TYPE:WALL-INNER
G1 F2400 X163.198 Y32.328 E0.07026
G1 X164.315 Y33.185 E0.1405
G1 X165.172 Y34.302 E0.21074
G1 X165.711 Y35.603 E0.28099
G1 X165.9 Y37.04 E0.3533
G1 X165.9 Y82.96 E2.64426
G1 X165.711 Y84.397 E2.71657
G1 X165.172 Y85.698 E2.78683
G1 X164.315 Y86.815 E2.85707
G1 X163.198 Y87.672 E2.92731
G1 X161.897 Y88.211 E2.99756
G1 X160.46 Y88.4 E3.06987
G1 X39.54 Y88.4 E9.1026
G1 X38.103 Y88.211 E9.17491
G1 X36.802 Y87.672 E9.24516
G1 X35.685 Y86.815 E9.3154
G1 X34.828 Y85.698 E9.38564
G1 X34.289 Y84.397 E9.4559
G1 X34.1 Y82.96 E9.52821
G1 X34.1 Y37.04 E11.81917
G1 X34.289 Y35.603 E11.89148
G1 X34.828 Y34.302 E11.96173
G1 X35.685 Y33.185 E12.03197
G1 X36.802 Y32.328 E12.10221
G1 X38.103 Y31.789 E12.17247
G1 X39.54 Y31.6 E12.24478
G1 X160.46 Y31.6 E18.2775
G1 X161.897 Y31.789 E18.34981
G0 F3600 X161.998 Y31.398
;TYPE:WALL-OUTER
G1 F2400 X163.399 Y31.979 E18.42548
G1 X164.6 Y32.9 E18.50099
G1 X165.521 Y34.101 E18.5765
G1 X166.102 Y35.502 E18.65217
G1 X166.3 Y37.011 E18.7281
G1 X166.3 Y82.989 E21.02195
G1 X166.102 Y84.498 E21.09788
G1 X165.521 Y85.899 E21.17355
G1 X164.6 Y87.1 E21.24905
G1 X163.399 Y88.021 E21.32456
G1 X161.998 Y88.602 E21.40023
G1 X160.489 Y88.8 E21.47616
G1 X39.511 Y88.8 E27.51178
G1 X38.002 Y88.602 E27.58771
G1 X36.601 Y88.021 E27.66337
G1 X35.4 Y87.1 E27.73888
G1 X34.479 Y85.899 E27.81439
G1 X33.898 Y84.498 E27.89006
G1 X33.7 Y82.989 E27.96599
G1 X33.7 Y37.011 E30.25984
G1 X33.898 Y35.502 E30.33577
G1 X34.479 Y34.101 E30.41144
G1 X35.4 Y32.9 E30.48695
G1 X36.601 Y31.979 E30.56245
G1 X38.002 Y31.398 E30.63812
G1 X39.511 Y31.2 E30.71405
G1 X160.489 Y31.2 E36.74967
G1 X161.998 Y31.398 E36.8256
G0 F3600 X162.182 Y31.474
G0 X161.789 Y32.167
;TYPE:SKIN
G1 F2400 X163.001 Y32.67 E36.89107
G1 X164.036 Y33.464 E36.95615
G1 X164.83 Y34.499 E37.02123
G1 X165.333 Y35.711 E37.08669
G1 X165.51 Y37.061 E37.15462
G1 X165.51 Y82.939 E39.44349
G1 X165.333 Y84.289 E39.51141
G1 X164.83 Y85.501 E39.57688
G1 X164.036 Y86.536 E39.64196
G1 X163.001 Y87.33 E39.70704
G1 X161.789 Y87.833 E39.77251
G1 X160.439 Y88.01 E39.84044
G1 X39.561 Y88.01 E45.87107
G1 X38.211 Y87.833 E45.93899
G1 X36.999 Y87.33 E46.00446
G1 X35.964 Y86.536 E46.06954
G1 X35.17 Y85.501 E46.13462
G1 X34.667 Y84.289 E46.20009
G1 X34.49 Y82.939 E46.26802
G1 X34.49 Y37.061 E48.55688
G1 X34.667 Y35.711 E48.62481
G1 X35.17 Y34.499 E48.69028
G1 X35.964 Y33.464 E48.75536
G1 X36.999 Y32.67 E48.82044
G1 X38.211 Y32.167 E48.88591
G1 X39.561 Y31.99 E48.95383
G1 X160.439 Y31.99 E54.98446
G1 X161.789 Y32.167 E55.05239
G0 F3600 X164.582 Y34.474
G1 F2400 X163.024 Y32.917 E55.16228
G1 X162.954 Y32.847
G0 F3600 X161.987 Y32.445
G1 F2400 X165.054 Y35.512 E55.37867
G1 X165.124 Y35.582
G0 F3600 X165.221 Y36.244
G1 F2400 X161.254 Y32.278 E55.65853
G1 X161.184 Y32.208
G0 F3600 X160.604 Y32.193
G1 F2400 X165.306 Y36.896 E55.99032
G1 X165.376 Y36.966
G0 F3600 X165.329 Y37.484
G1 F2400 X160.015 Y32.17 E56.36525
G1 X159.945 Y32.1
G0 F3600 X159.449 Y32.17
G1 F2400 X165.329 Y38.05 E56.78012
G1 X165.399 Y38.12
G0 F3600 X165.329 Y38.615
G1 F2400 X158.884 Y32.17 E57.23485
G1 X158.814 Y32.1
G0 F3600 X158.318 Y32.17
G1 F2400 X165.329 Y39.181 E57.72951
G1 X165.399 Y39.251
G0 F3600 X165.329 Y39.747
G1 F2400 X157.752 Y32.17 E58.26411
G1 X157.682 Y32.1
G0 F3600 X157.187 Y32.17
G1 F2400 X165.329 Y40.312 E58.83857
G1 X165.399 Y40.382
G0 F3600 X165.329 Y40.878
G1 F2400 X156.621 Y32.17 E59.45297
G1 X156.551 Y32.1
G0 F3600 X156.055 Y32.17
G1 F2400 X165.329 Y41.444 E60.1073
G1 X165.399 Y41.514
G0 F3600 X165.329 Y42.009
G1 F2400 X155.489 Y32.17 E60.80153
G1 X155.419 Y32.1
G0 F3600 X154.924 Y32.17
G1 F2400 X165.329 Y42.575 E61.53566
G1 X165.399 Y42.645
G0 F3600 X165.329 Y43.141
G1 F2400 X154.358 Y32.17 E62.30972
G1 X154.288 Y32.1
G0 F3600 X153.792 Y32.17
G1 F2400 X165.329 Y43.706 E63.12368
G1 X165.399 Y43.776
G0 F3600 X165.329 Y44.272
G1 F2400 X153.227 Y32.17 E63.97754
G1 X153.157 Y32.1
G0 F3600 X152.661 Y32.17
G1 F2400 X165.329 Y44.838 E64.87134
G1 X165.399 Y44.908
G0 F3600 X165.329 Y45.404
G1 F2400 X152.095 Y32.17 E65.80507
G1 X152.025 Y32.1
G0 F3600 X151.53 Y32.17
G1 F2400 X165.329 Y45.969 E66.77866
G1 X165.399 Y46.039
G0 F3600 X165.329 Y46.535
G1 F2400 X150.964 Y32.17 E67.79219
G1 X150.894 Y32.1
G0 F3600 X150.398 Y32.17
G1 F2400 X165.329 Y47.101 E68.84565
G1 X165.399 Y47.171
G0 F3600 X165.329 Y47.666
G1 F2400 X149.833 Y32.17 E69.93898
G1 X149.763 Y32.1
G0 F3600 X149.267 Y32.17
G1 F2400 X165.329 Y48.232 E71.07224
G1 X165.399 Y48.302
G0 F3600 X165.329 Y48.798
G1 F2400 X148.701 Y32.17 E72.24544
G1 X148.631 Y32.1
G0 F3600 X148.136 Y32.17
G1 F2400 X165.329 Y49.363 E73.4585
G1 X165.399 Y49.433
G0 F3600 X165.329 Y49.929
G1 F2400 X147.57 Y32.17 E74.71149
G1 X147.5 Y32.1
G0 F3600 X147.004 Y32.17
G1 F2400 X165.329 Y50.495 E76.00442
G1 X165.399 Y50.565
G0 F3600 X165.329 Y51.06
G1 F2400 X146.438 Y32.17 E77.33724
G1 X146.368 Y32.1
G0 F3600 X145.873 Y32.17
G1 F2400 X165.329 Y51.626 E78.70997
G1 X165.399 Y51.696
G0 F3600 X165.329 Y52.192
G1 F2400 X145.307 Y32.17 E80.12263
G1 X145.237 Y32.1
G0 F3600 X144.741 Y32.17
G1 F2400 X165.329 Y52.757 E81.57519
G1 X165.399 Y52.827
G0 F3600 X165.329 Y53.323
G1 F2400 X144.176 Y32.17 E83.06765
G1 X144.106 Y32.1
G0 F3600 X143.61 Y32.17
G1 F2400 X165.329 Y53.889 E84.60004
G1 X165.399 Y53.959
G0 F3600 X165.329 Y54.455
G1 F2400 X143.044 Y32.17 E86.17237
G1 X142.974 Y32.1
G0 F3600 X142.479 Y32.17
G1 F2400 X165.329 Y55.02 E87.78456
G1 X165.399 Y55.09
G0 F3600 X165.329 Y55.586
G1 F2400 X141.913 Y32.17 E89.43668
G1 X141.843 Y32.1
G0 F3600 X141.347 Y32.17
G1 F2400 X165.329 Y56.152 E91.12874
G1 X165.399 Y56.222
G0 F3600 X165.329 Y56.717
G1 F2400 X140.782 Y32.17 E92.86067
G1 X140.712 Y32.1
G0 F3600 X140.216 Y32.17
G1 F2400 X165.329 Y57.283 E94.63252
G1 X165.399 Y57.353
G0 F3600 X165.329 Y57.849
G1 F2400 X139.65 Y32.17 E96.44432
G1 X139.58 Y32.1
G0 F3600 X139.085 Y32.17
G1 F2400 X165.329 Y58.414 E98.29597
G1 X165.399 Y58.484
G0 F3600 X165.329 Y58.98
G1 F2400 X138.519 Y32.17 E100.18756
G1 X138.449 Y32.1
G0 F3600 X137.953 Y32.17
G1 F2400 X165.329 Y59.546 E102.11909
G1 X165.399 Y59.616
G0 F3600 X165.329 Y60.111
G1 F2400 X137.388 Y32.17 E104.09048
G1 X137.318 Y32.1
G0 F3600 X136.822 Y32.17
G1 F2400 X165.329 Y60.677 E106.1018
G1 X165.399 Y60.747
G0 F3600 X165.329 Y61.243
G1 F2400 X136.256 Y32.17 E108.15306
G1 X136.186 Y32.1
G0 F3600 X135.69 Y32.17
G1 F2400 X165.329 Y61.808 E110.24421
G1 X165.399 Y61.878
G0 F3600 X165.329 Y62.374
G1 F2400 X135.125 Y32.17 E112.37527
G1 X135.055 Y32.1
G0 F3600 X134.559 Y32.17
G1 F2400 X165.329 Y62.94 E114.54626
G1 X165.399 Y63.01
G0 F3600 X165.329 Y63.505
G1 F2400 X133.993 Y32.17 E116.75715
G1 X133.923 Y32.1
G0 F3600 X133.428 Y32.17
G1 F2400 X165.329 Y64.071 E119.00793
G1 X165.399 Y64.141
G0 F3600 X165.329 Y64.637
G1 F2400 X132.862 Y32.17 E121.29866
G1 X132.792 Y32.1
G0 F3600 X132.296 Y32.17
G1 F2400 X165.329 Y65.203 E123.62931
G1 X165.399 Y65.273
G0 F3600 X165.329 Y65.768
G1 F2400 X131.731 Y32.17 E125.99983
G1 X131.661 Y32.1
G0 F3600 X131.165 Y32.17
G1 F2400 X165.329 Y66.334 E128.41029
G1 X165.399 Y66.404
G0 F3600 X165.329 Y66.9
G1 F2400 X130.599 Y32.17 E130.86068
G1 X130.529 Y32.1
G0 F3600 X130.034 Y32.17
G1 F2400 X165.329 Y67.465 E133.35093
G1 X165.399 Y67.535
G0 F3600 X165.329 Y68.031
G1 F2400 X129.468 Y32.17 E135.88112
G1 X129.398 Y32.1
G0 F3600 X128.902 Y32.17
G1 F2400 X165.329 Y68.597 E138.45124
G1 X165.399 Y68.667
G0 F3600 X165.329 Y69.162
G1 F2400 X128.337 Y32.17 E141.06122
G1 X128.267 Y32.1
G0 F3600 X127.771 Y32.17
G1 F2400 X165.329 Y69.728 E143.71114
G1 X165.399 Y69.798
G0 F3600 X165.329 Y70.294
G1 F2400 X127.205 Y32.17 E146.401
G1 X127.135 Y32.1
G0 F3600 X126.639 Y32.17
G1 F2400 X165.329 Y70.859 E149.13075
G1 X165.399 Y70.929
G0 F3600 X165.329 Y71.425
G1 F2400 X126.074 Y32.17 E151.9004
G1 X126.004 Y32.1
G0 F3600 X125.508 Y32.17
G1 F2400 X165.329 Y71.991 E154.70999
G1 X165.399 Y72.061
G0 F3600 X165.329 Y72.556
G1 F2400 X124.942 Y32.17 E157.55948
G1 X124.872 Y32.1
G0 F3600 X124.377 Y32.17
G1 F2400 X165.329 Y73.122 E160.44886
G1 X165.399 Y73.192
G0 F3600 X165.329 Y73.688
G1 F2400 X123.811 Y32.17 E163.37818
G1 X123.741 Y32.1
G0 F3600 X123.245 Y32.17
G1 F2400 X165.329 Y74.253 E166.3474
G1 X165.399 Y74.323
G0 F3600 X165.329 Y74.819
G1 F2400 X122.68 Y32.17 E169.35652
G1 X122.61 Y32.1
G0 F3600 X122.114 Y32.17
G1 F2400 X165.329 Y75.385 E172.40557
G1 X165.399 Y75.455
G0 F3600 X165.329 Y75.951
G1 F2400 X121.548 Y32.17 E175.49455
G1 X121.478 Y32.1
G0 F3600 X120.983 Y32.17
G1 F2400 X165.329 Y76.516 E178.6234
G1 X165.399 Y76.586
G0 F3600 X165.329 Y77.082
G1 F2400 X120.417 Y32.17 E181.79219
G1 X120.347 Y32.1
G0 F3600 X119.851 Y32.17
G1 F2400 X165.329 Y77.648 E185.00091
G1 X165.399 Y77.718
G0 F3600 X165.329 Y78.213
G1 F2400 X119.286 Y32.17 E188.24949
G1 X119.216 Y32.1
G0 F3600 X118.72 Y32.17
G1 F2400 X165.329 Y78.779 E191.538
G1 X165.399 Y78.849
G0 F3600 X165.329 Y79.345
G1 F2400 X118.154 Y32.17 E194.86646
G1 X118.084 Y32.1
G0 F3600 X117.589 Y32.17
G1 F2400 X165.329 Y79.91 E198.23477
G1 X165.399 Y79.98
G0 F3600 X165.329 Y80.476
G1 F2400 X117.023 Y32.17 E201.64302
G1 X116.953 Y32.1
G0 F3600 X116.457 Y32.17
G1 F2400 X165.329 Y81.042 E205.0912
G1 X165.399 Y81.112
G0 F3600 X165.329 Y81.607
G1 F2400 X115.891 Y32.17 E208.57929
G1 X115.821 Y32.1
G0 F3600 X115.326 Y32.17
G1 F2400 X165.329 Y82.173 E212.10727
G1 X165.399 Y82.243
G0 F3600 X165.329 Y82.739
G1 F2400 X114.76 Y32.17 E215.67518
G1 X114.69 Y32.1
G0 F3600 X114.194 Y32.17
G1 F2400 X165.286 Y83.261 E219.27996
G1 X165.356 Y83.331
G0 F3600 X165.22 Y83.761
G1 F2400 X113.629 Y32.17 E222.91999
G1 X113.559 Y32.1
G0 F3600 X113.063 Y32.17
G1 F2400 X165.15 Y84.257 E226.59501
G1 X165.22 Y84.327
G0 F3600 X164.984 Y84.656
G1 F2400 X112.497 Y32.17 E230.29821
G1 X112.427 Y32.1
G0 F3600 X111.932 Y32.17
G1 F2400 X164.818 Y85.056 E234.02961
G1 X164.888 Y85.126
G0 F3600 X164.643 Y85.447
G1 F2400 X111.366 Y32.17 E237.78859
G1 X111.296 Y32.1
G0 F3600 X110.8 Y32.17
G1 F2400 X164.397 Y85.767 E241.57014
G1 X164.467 Y85.837
G0 F3600 X164.152 Y86.087
G1 F2400 X110.235 Y32.17 E245.37428
G1 X110.165 Y32.1
G0 F3600 X109.669 Y32.17
G1 F2400 X163.905 Y86.407 E249.20096
G1 X163.975 Y86.477
G0 F3600 X163.585 Y86.652
G1 F2400 X109.103 Y32.17 E253.04496
G1 X109.033 Y32.1
G0 F3600 X108.538 Y32.17
G1 F2400 X163.265 Y86.897 E256.90624
G1 X163.335 Y86.967
G0 F3600 X162.945 Y87.143
G1 F2400 X107.972 Y32.17 E260.78488
G1 X107.902 Y32.1
G0 F3600 X107.406 Y32.17
G1 F2400 X162.554 Y87.318 E264.67587
G1 X162.624 Y87.388
G0 F3600 X162.155 Y87.484
G1 F2400 X106.841 Y32.17 E268.57858
G1 X106.771 Y32.1
G0 F3600 X106.275 Y32.17
G1 F2400 X161.755 Y87.65 E272.49299
G1 X161.825 Y87.72
G0 F3600 X161.259 Y87.72
G1 F2400 X105.709 Y32.17 E276.41234
G1 X105.639 Y32.1
G0 F3600 X105.143 Y32.17
G1 F2400 X160.759 Y87.785 E280.33632
G1 X160.829 Y87.855
G0 F3600 X160.237 Y87.829
G1 F2400 X104.578 Y32.17 E284.26336
G1 X104.508 Y32.1
G0 F3600 X104.012 Y32.17
G1 F2400 X159.671 Y87.829 E288.1904
G1 X159.741 Y87.899
G0 F3600 X159.106 Y87.829
G1 F2400 X103.446 Y32.17 E292.11748
G1 X103.376 Y32.1
G0 F3600 X102.881 Y32.17
G1 F2400 X158.54 Y87.829 E296.04452
G1 X158.61 Y87.899
G0 F3600 X157.974 Y87.829
G1 F2400 X102.315 Y32.17 E299.97157
G1 X102.245 Y32.1
G0 F3600 X101.749 Y32.17
G1 F2400 X157.409 Y87.829 E303.89864
G1 X157.479 Y87.899
G0 F3600 X156.843 Y87.829
G1 F2400 X101.184 Y32.17 E307.82569
G1 X101.114 Y32.1
G0 F3600 X100.618 Y32.17
G1 F2400 X156.277 Y87.829 E311.75273
G1 X156.347 Y87.899
G0 F3600 X155.711 Y87.829
G1 F2400 X100.052 Y32.17 E315.67977
G1 X99.982 Y32.1
G0 F3600 X99.487 Y32.17
G1 F2400 X155.146 Y87.829 E319.60682
G1 X155.216 Y87.899
G0 F3600 X154.58 Y87.829
G1 F2400 X98.921 Y32.17 E323.53386
G1 X98.851 Y32.1
G0 F3600 X98.355 Y32.17
G1 F2400 X154.014 Y87.829 E327.4609
G1 X154.084 Y87.899
G0 F3600 X153.449 Y87.829
G1 F2400 X97.79 Y32.17 E331.38795
G1 X97.72 Y32.1
G0 F3600 X97.224 Y32.17
G1 F2400 X152.883 Y87.829 E335.31499
G1 X152.953 Y87.899
G0 F3600 X152.317 Y87.829
G1 F2400 X96.658 Y32.17 E339.24203
G1 X96.588 Y32.1
G0 F3600 X96.092 Y32.17
G1 F2400 X151.752 Y87.829 E343.16911
G1 X151.822 Y87.899
G0 F3600 X151.186 Y87.829
G1 F2400 X95.527 Y32.17 E347.09615
G1 X95.457 Y32.1
G0 F3600 X94.961 Y32.17
G1 F2400 X150.62 Y87.829 E351.0232
G1 X150.69 Y87.899
G0 F3600 X150.055 Y87.829
G1 F2400 X94.395 Y32.17 E354.95028
G1 X94.325 Y32.1
G0 F3600 X93.83 Y32.17
G1 F2400 X149.489 Y87.829 E358.87732
G1 X149.559 Y87.899
G0 F3600 X148.923 Y87.829
G1 F2400 X93.264 Y32.17 E362.80436
G1 X93.194 Y32.1
G0 F3600 X92.698 Y32.17
G1 F2400 X148.358 Y87.829 E366.73144
G1 X148.428 Y87.899
G0 F3600 X147.792 Y87.829
G1 F2400 X92.133 Y32.17 E370.65848
G1 X92.063 Y32.1
G0 F3600 X91.567 Y32.17
G1 F2400 X147.226 Y87.829 E374.58553
G1 X147.296 Y87.899
G0 F3600 X146.661 Y87.829
G1 F2400 X91.001 Y32.17 E378.5126
G1 X90.931 Y32.1
G0 F3600 X90.436 Y32.17
G1 F2400 X146.095 Y87.829 E382.43965
G1 X146.165 Y87.899
G0 F3600 X145.529 Y87.829
G1 F2400 X89.87 Y32.17 E386.36669
G1 X89.8 Y32.1
G0 F3600 X89.304 Y32.17
G1 F2400 X144.963 Y87.829 E390.29373
G1 X145.033 Y87.899
G0 F3600 X144.398 Y87.829
G1 F2400 X88.739 Y32.17 E394.22078
G1 X88.669 Y32.1
G0 F3600 X88.173 Y32.17
G1 F2400 X143.832 Y87.829 E398.14782
G1 X143.902 Y87.899
G0 F3600 X143.266 Y87.829
G1 F2400 X87.607 Y32.17 E402.07486
G1 X87.537 Y32.1
G0 F3600 X87.042 Y32.17
G1 F2400 X142.701 Y87.829 E406.00191
G1 X142.771 Y87.899
G0 F3600 X142.135 Y87.829
G1 F2400 X86.476 Y32.17 E409.92895
G1 X86.406 Y32.1
G0 F3600 X85.91 Y32.17
G1 F2400 X141.569 Y87.829 E413.85599
G1 X141.639 Y87.899
G0 F3600 X141.004 Y87.829
G1 F2400 X85.344 Y32.17 E417.78307
G1 X85.274 Y32.1
G0 F3600 X84.779 Y32.17
G1 F2400 X140.438 Y87.829 E421.71011
G1 X140.508 Y87.899
G0 F3600 X139.872 Y87.829
G1 F2400 X84.213 Y32.17 E425.63716
G1 X84.143 Y32.1
G0 F3600 X83.647 Y32.17
G1 F2400 X139.307 Y87.829 E429.56423
G1 X139.377 Y87.899
G0 F3600 X138.741 Y87.829
G1 F2400 X83.082 Y32.17 E433.49128
G1 X83.012 Y32.1
G0 F3600 X82.516 Y32.17
G1 F2400 X138.175 Y87.829 E437.41832
G1 X138.245 Y87.899
G0 F3600 X137.61 Y87.829
G1 F2400 X81.95 Y32.17 E441.3454
G1 X81.88 Y32.1
G0 F3600 X81.385 Y32.17
G1 F2400 X137.044 Y87.829 E445.27244
G1 X137.114 Y87.899
G0 F3600 X136.478 Y87.829
G1 F2400 X80.819 Y32.17 E449.19949
G1 X80.749 Y32.1
G0 F3600 X80.253 Y32.17
G1 F2400 X135.912 Y87.829 E453.12653
G1 X135.982 Y87.899
G0 F3600 X135.347 Y87.829
G1 F2400 X79.688 Y32.17 E457.05357
G1 X79.618 Y32.1
G0 F3600 X79.122 Y32.17
G1 F2400 X134.781 Y87.829 E460.98061
G1 X134.851 Y87.899
G0 F3600 X134.215 Y87.829
G1 F2400 X78.556 Y32.17 E464.90766
G1 X78.486 Y32.1
G0 F3600 X77.991 Y32.17
G1 F2400 X133.65 Y87.829 E468.8347
G1 X133.72 Y87.899
G0 F3600 X133.084 Y87.829
G1 F2400 X77.425 Y32.17 E472.76174
G1 X77.355 Y32.1
G0 F3600 X76.859 Y32.17
G1 F2400 X132.518 Y87.829 E476.68879
G1 X132.588 Y87.899
G0 F3600 X131.953 Y87.829
G1 F2400 X76.293 Y32.17 E480.61587
G1 X76.223 Y32.1
G0 F3600 X75.728 Y32.17
G1 F2400 X131.387 Y87.829 E484.54291
G1 X131.457 Y87.899
G0 F3600 X130.821 Y87.829
G1 F2400 X75.162 Y32.17 E488.46995
G1 X75.092 Y32.1
G0 F3600 X74.596 Y32.17
G1 F2400 X130.256 Y87.829 E492.39703
G1 X130.326 Y87.899
G0 F3600 X129.69 Y87.829
G1 F2400 X74.031 Y32.17 E496.32407
G1 X73.961 Y32.1
G0 F3600 X73.465 Y32.17
G1 F2400 X129.124 Y87.829 E500.25112
G1 X129.194 Y87.899
G0 F3600 X128.559 Y87.829
G1 F2400 X72.899 Y32.17 E504.17819
G1 X72.829 Y32.1
G0 F3600 X72.334 Y32.17
G1 F2400 X127.993 Y87.829 E508.10524
G1 X128.063 Y87.899
G0 F3600 X127.427 Y87.829
G1 F2400 X71.768 Y32.17 E512.03228
G1 X71.698 Y32.1
G0 F3600 X71.202 Y32.17
